X: 1
T: Inisheer
C: Thomas Walsh
O: arr. A. Reiner / Rustic Roots
R: waltz
Z: 2019 John Chambers <jc:trillian.mit.edu>
M: 3/4
L: 1/8
K: G
D GA |\
"G"B2 (BA) Bd | "/F#"B2 BA Bd | "C/E"E3 (B AB) | "D"D3 (B AG) |
"G"{A}B2 (BA) Bd | "/F#"B2 (BA) Bd | "C/E"E3 B "D"A/(G/F) | "G"{F}G3 :|
|: (A Bd) |\
"C"e2 (ef) ed | "G"B2 (BA) Bd | "C"gf e(d "D"B/c/d) | "Em"e3 (A Bd) |
"C"e2 (ef) ed | "G"B2 (BA) Bd | "D"E3 B A/(G/F) | "G"{F}G3 :|
